!!!!SEGMENT: pl-kk--kk-i-38--018_lasso-orlando-di--cognoscimus-domine.krn
!!!cenid: 16xx:1268
!!!COM: Lasso, Orlando di
!!!COM-rismid: pe506
!!!CDT: ~1532-1594/06/14
!!!CNT: French-Flemish
!!!OTL: Cognoscimus domine
!!!PDT:
!!!AGN: Sacred
!!!SMS-siglum: PL-Kk
!!!SMS-shelfmark: Kk.I.38
!!!SMS-shelfwork: 018 W
!!!SMS-variant:
!!!SMS-altvar:
!!!NIFC-rismid: 1001154414
!!!URL-scan: http://repozytorium.nifc.pl/skany/pl-kk-nut--i-38
!!!ONB-nifc: Lib. 3. Fol. 6. 2da parte (jeśli występuje), należy do utworu tytułowego
!!!key:
**kern	**text
*Iempty	*
*I"Baſso Ripieno.	*
*I'B rip	*
*clefF4	*
*k[b-]	*
*g:	*
*M2/1	*
*met(C|)	*
=1-	=1-
!LO:TX:a:i:t=Pro Supplicationib(us) Lib. 3. Fol. 6.	!
!LO:TX:b:i:t=Cognoscim(us).	!
!LO:TX:a:t=P:problem:znaki BB- B-	!
00r	.
=2-	=2-
.	.
=3-	=3-
00r	.
=4-	=4-
.	.
=5-	=5-
0r	.
=6-	=6-
!LO:TX:t=P:problem:kreska pseudotaktowa	!
1r	.
2r	.
*2\right	*
2G\	Qui-
=7-	=7-
2G\	-a
!LO:TX:t=P:problem:kreska pseudotaktowa	!
2G\	pec-
2.D\	-ca-
4E\	.
=8-	=8-
2F\	.
2F\	-vi-
!LO:TX:t=P:problem:kreska pseudotaktowa	!
1C	-m(us).
=9-	=9-
00r	.
=10-	=10-
.	.
=11-	=11-
0r	.
=12-	=12-
!LO:TX:t=P:problem:kreska pseudotaktowa	!
1r	.
0D	Co-
=13-	=13-
.	.
2.BB-/	-gno-
4C/	.
=14-	=14-
2D\	-sci-
2E-X\	-m(us)
!LO:TX:t=P:problem:kreska pseudotaktowa	!
1D	Do-
=15-	=15-
2.G\	.
4GG/	-mi-
!LO:TX:t=P:problem:kreska pseudotaktowa	!
0D	-ne
=16-	=16-
.	.
2r	.
2F\	qui-
=17-	=17-
2F\	-a
2F\	pec-
2.C/	-ca-
4C/	-vi-
=18-	=18-
!LO:TX:t=P:problem:kreska pseudotaktowa	!
1C	-m(us)
2r	.
2G\	qui-
=19-	=19-
2G\	-a
!LO:TX:t=P:problem:kreska pseudotaktowa	!
2G\	pec-
!!LO:LB:g=original
2.D\	-ca-
4Eny\	-vi-
=20-	=20-
!LO:TX:a:t=P:problem:oddech jako rozdzielacz słów:global	!
2F,<\	-m(us)
2C/	Ti-
!LO:TX:t=P:problem:kreska pseudotaktowa	!
1D	-bi
=21-	=21-
2r	.
1G	Ve-
2G\	-ni-
=22-	=22-
2F,<\	-am
4BB-/	pe-
!LO:TX:t=P:problem:kreska pseudotaktowa	!
4C/	.
4D\	.
4E\	.
2.F\	.
=23-	=23-
.	.
4E\	.
4D\	.
!LO:TX:t=P:problem:kreska pseudotaktowa	!
4C\	.
2D\	.
2D\	-ti-
=24-	=24-
!LO:TX:t=P:problem:kreska pseudotaktowa	!
1C	-m(us)
2r	.
2G\	quam
=25-	=25-
2E-X\	non
2E-\	me-
1BB-	-re-
=26-	=26-
!LO:TX:t=P:problem:kreska pseudotaktowa	!
1F,<	-mur
*	*ij
1BB-	quam
=27-	=27-
2C/	non
2C/	me-
1GG	-re-
=28-	=28-
!LO:TX:t=P:problem:kreska pseudotaktowa	!
1C,<	-mur
*	*Xij
1r	.
=29-	=29-
1BB-	ma-
1BB-	-n(um)
=30-	=30-
1E-X	tu-
1D,<	-(am)
=31-	=31-
2.BB-/	por-
4BB-/	-ri-
!LO:TX:t=P:problem:kreska pseudotaktowa	!
1F	-ge
=32-	=32-
1C	lap-
2GG,</	-sis
2.G\	por-
=33-	=33-
.	.
4A\	-ri-
!LO:TX:t=P:problem:kreska pseudotaktowa	!
2B-\	-ge
!!LO:LB:g=original
2.BB-/	lap-
4C/	.
=34-	=34-
1D	.
!LO:TX:t=P:problem:kreska pseudotaktowa	!
0AA,<	-ſis,
=35-	=35-
.	.
1D,<	qui
=36-	=36-
1D	La-
1GG	-tro-
=37-	=37-
2C,</	-ni
1C	Con-
2C/	-fi-
=38-	=38-
1G	-ten-
!LO:TX:t=P:problem:kreska pseudotaktowa	!
1GG	-ti
=39-	=39-
2r	.
1D	Pa-
2D\	-ra-
=40-	=40-
2F#X\	-di-
!LO:TX:t=P:problem:kreska pseudotaktowa	!
2F#\	-ſi
2.G\	Ja-
4G\	-nu-
=41-	=41-
2C,</	-(am)
2C/	a-
2GG/	-pe-
2G\	-ru-
=42-	=42-
1Fny	-iſ-
!LO:TX:t=P:problem:kreska pseudotaktowa	!
1C	-ti,
=43-	=43-
2r	.
1C	Pa-
2C/	-ra-
=44-	=44-
2E-X\	-di-
2E-\	-si
2.F\	Ja-
4F\	-nu-
=45-	=45-
!LO:TX:t=P:problem:kreska pseudotaktowa	!
1BB-	-(am)
0r	.
=46-	=46-
.	.
!LO:TX:t=P:problem:kreska pseudotaktowa	!
1r	.
=47-	=47-
2r	.
1BB-	Pa-
!LO:TX:t=P:problem:kreska pseudotaktowa	!
2BB-/	-ra-
!!LO:LB:g=original
=48-	=48-
2D\	-di-
2D\	-si
2.D\	Ja-
!LO:TX:t=P:problem:kreska pseudotaktowa	!
4D\	-nu-
=49-	=49-
2GG,</	-am
2C/	a-
2BBn/	-pe-
2C/	-ru-
=50-	=50-
1GG	-is-
!LO:TX:t=P:problem:kreska pseudotaktowa	!
1C	-ti,
=51-	=51-
1r	.
1.G	Pa-
=52-	=52-
.	.
2GG/	-ra-
2BBn/	-di-
!LO:TX:t=P:problem:kreska pseudotaktowa	!
2BB/	-si
=53-	=53-
2.C/	Ja-
4C/	-nu-
2GG,</	-am
2G\	a-
=54-	=54-
2F\	-pe-
2F\	-ru-
!LO:TX:t=P:problem:kreska pseudotaktowa	!
1C	-iſ-
=55-	=55-
2G,<\	-ti
2GG/	a-
2GG/	-pe-
2D/	-ru-
=56-	=56-
0GG	-is-
=57-	=57-
0Dl;	-ti.
!!LO:LB:g=original
=58||-	=58||-
!LO:TX:a:t=2da parte	!
00r	.
=59-	=59-
.	.
=60-	=60-
00r	.
=61-	=61-
.	.
=62-	=62-
0r	.
=63-	=63-
!LO:TX:t=P:problem:kreska pseudotaktowa	!
1r	.
2.D/	Vi-
4C/	.
=64-	=64-
2D/	-ta
4GG/	no-
!LO:TX:t=P:problem:kreska pseudotaktowa	!
4AA/	.
4BB-y/	.
4C/	.
2D/	.
=65-	=65-
1C	.
!LO:TX:t=P:problem:kreska pseudotaktowa	!
1GG	-stra
=66-	=66-
1r	.
1E-X	in
=67-	=67-
1BB-	do-
1C	-lo-
=68-	=68-
!LO:TX:t=P:problem:kreska pseudotaktowa	!
1D	-re
4r	.
4GG/	suſ-
2C/	-pi-
=69-	=69-
!LO:TX:t=P:problem:kreska pseudotaktowa	!
1BB-	-rat
1r	.
=70-	=70-
1BB-	in
1F	do-
=71-	=71-
1C	-lo-
2GG/	-re
4r	.
4GG/	Suſ-
=72-	=72-
1D	-pi-
!LO:TX:t=P:problem:kreska pseudotaktowa	!
1AA	-rat
=73-	=73-
0r	.
=74-	=74-
!LO:TX:t=P:problem:kreska pseudotaktowa	!
1r	.
!!LO:LB:g=original
2r	.
2.F\	non
=75-	=75-
.	.
4Eny\	.
4D\	.
4C\	.
2BB-/	.
!LO:TX:t=P:problem:kreska pseudotaktowa	!
2F\	e-
=76-	=76-
2.D/	-men-
4C/	.
4BB-/	.
4AA/	.
2BB-/	.
=77-	=77-
!LO:TX:t=P:problem:kreska pseudotaktowa	!
1AA	-dat
1r	.
=78-	=78-
2.D\	non
4E\	.
4F\	.
4E\	.
4D\	.
4C\	.
=79-	=79-
2BB-/	.
2F\	e-
1C	-men-
=80-	=80-
!LO:TX:t=P:problem:kreska pseudotaktowa	!
1D	-dat.
2r	.
1G\	Si
=81-	=81-
.	.
2G\	ex-
0G	-pec-
=82-	=82-
.	.
!LO:TX:t=P:problem:kreska pseudotaktowa	!
0D	-tas
=83-	=83-
.	.
1.E-X	non
=84-	=84-
.	.
2E-\	cor-
2D/	-ri-
2C/	-gi-
=85-	=85-
!LO:TX:t=P:problem:kreska pseudotaktowa	!
0BB-	-mur
=86-	=86-
0r	.
=87-	=87-
!LO:TX:t=P:problem:kreska pseudotaktowa	!
1r	.
1F,<	aut
=88-	=88-
1D	si
2.G\	vin-
4G\	-di-
=89-	=89-
!LO:TX:t=P:problem:kreska pseudotaktowa	!
1G	-cas
!!LO:LB:g=original
1r	.
=90-	=90-
1E-X	aut
1BB-	si
=91-	=91-
2.D/	vin-
4D/	-di-
!LO:TX:t=P:problem:kreska pseudotaktowa	!
1AA	-cas
=92-	=92-
2r	.
4D\	non
4Eny\	.
4F\	.
4G\	.
!LO:TX:t=P:problem:kreska pseudotaktowa	!
2A\	.
=93-	=93-
2F\	du-
2.G\	-ra-
4F\	.
4E\	.
4D\	.
=94-	=94-
1E	.
!LO:TX:t=P:problem:kreska pseudotaktowa	!
0D	-mus;
=95-	=95-
.	.
!LO:TX:t=P:problem:kreska pseudotaktowa	!
00r	.
=96-	=96-
.	.
=97-	=97-
.	.
1.G	non
=98-	=98-
.	.
2F\	du-
1E-X	-ra-
=99-	=99-
!LO:TX:t=P:problem:kreska pseudotaktowa	!
1D	-m(us)
2r	.
4GG/	non
4AA/	.
=100-	=100-
4BB-/	.
4C/	.
!LO:TX:t=P:problem:kreska pseudotaktowa	!
2D/	.
2BB-/	du-
2.C/	-ra-
=101-	=101-
.	.
4BB-/	.
4AA/	.
!LO:TX:t=P:problem:kreska pseudotaktowa	!
4GG/	.
1AA	.
=102-	=102-
1GG	.
!LO:TX:t=P:problem:kreska pseudotaktowa	!
1D	mus
=103-	=103-
!LO:TX:t=P:problem:kreska pseudotaktowa	!
00r	.
=104-	=104-
.	.
!!LO:LB:g=original
=105-	=105-
1.G	non
!!LO:LB:g=original
2F\	du-
=106-	=106-
1E-X	-ra-
!LO:TX:t=P:problem:kreska pseudotaktowa	!
1D	-m(us)
=107-	=107-
2r	.
2.G\	non
4F\	.
4E-X\	.
!LO:TX:t=P:problem:kreska pseudotaktowa	!
4D\	.
=108-	=108-
2C/	.
2C/	du-
1C	-ra-
=109-	=109-
0GGl;	-m(us).
==	==
*-	*-
!!!RDF**kern: < = below
!!!RDF**kern: l = terminal long
!!!AIN: 1 empty
!!!ENC: Marta Lawrence
!!!END: 2021-08-17
!!!ENC: Berenika Jozajtis
!!!END: 2021-07-03
